frontend/web/build/img/static/logo.svg

<svg width="223" height="48" viewBox="0 0 223 48" fill="none" xmlns="http://www.w3.org/2000/svg">
<path d="M18.0966 22.1756C18.0966 23.1231 18.8646 23.8911 19.812 23.8911C20.7594 23.8911 21.5275 23.1231 21.5275 22.1756V20.6811C21.5275 19.7337 20.7594 18.9657 19.812 18.9657C18.8646 18.9657 18.0966 19.7335 18.0966 20.6811V22.1756Z" fill="#222126"/>
<path d="M34.4371 23.8911C33.4897 23.8911 32.7216 23.1231 32.7216 22.1756V20.6811C32.7216 19.7335 33.4897 18.9657 34.4371 18.9657C35.3845 18.9657 36.1525 19.7337 36.1525 20.6811V22.1756C36.1525 23.1231 35.3845 23.8911 34.4371 23.8911Z" fill="#222126"/>
<path fill-rule="evenodd" clip-rule="evenodd" d="M54.249 43.2862C54.249 45.8896 52.1385 48 49.5352 48H4.71383C2.11045 48 0 45.8896 0 43.2862V16.9169C0 7.5741 7.57388 0 16.9169 0H37.3321C46.6749 0 54.249 7.57388 54.249 16.9169V43.2862ZM34.7539 37.2945C34.7539 38.242 33.9859 39.01 33.0385 39.01H21.2104C20.263 39.01 19.495 38.242 19.495 37.2945C19.495 36.3469 20.263 35.5791 21.2104 35.5791H33.0385C33.9859 35.5791 34.7539 36.3471 34.7539 37.2945ZM10.7035 24.7772C10.7035 26.4942 12.0954 27.8862 13.8124 27.8862H40.4366C42.1536 27.8862 43.5455 26.4942 43.5455 24.7772V18.1619C43.5455 16.4449 42.1536 15.0529 40.4366 15.0529H13.8124C12.0954 15.0529 10.7035 16.4449 10.7035 18.1619V24.7772Z" fill="#222126"/>
<path d="M76.8 15.8H82.592V12.6H73.28V35H76.8V25.752H81.344V22.552H76.8V15.8Z" fill="#222126"/>
<path fill-rule="evenodd" clip-rule="evenodd" d="M95.224 35C94.872 34.168 94.84 33.368 94.84 32.28V28.824C94.84 26.488 94.264 24.792 92.504 24.056C94.072 23.32 94.808 21.816 94.808 19.512V17.752C94.808 14.296 93.24 12.6 89.592 12.6H84.28V35H87.8V25.88H89.016C90.616 25.88 91.32 26.648 91.32 28.728V32.248C91.32 34.0409 91.4437 34.4116 91.6302 34.9707L91.64 35H95.224ZM89.496 15.8C90.744 15.8 91.288 16.504 91.288 18.104V20.312C91.288 22.104 90.488 22.68 89.176 22.68H87.8V15.8H89.496Z" fill="#222126"/>
<path d="M100.675 15.8H106.755V12.6H97.155V35H106.755V31.8H100.675V25.24H105.507V22.04H100.675V15.8Z" fill="#222126"/>
<path d="M112.456 15.8H118.536V12.6H108.936V35H118.536V31.8H112.456V25.24H117.288V22.04H112.456V15.8Z" fill="#222126"/>
<path d="M120.718 35H130.03V31.8H124.238V12.6H120.718V35Z" fill="#222126"/>
<path fill-rule="evenodd" clip-rule="evenodd" d="M139.369 12.6H134.217L130.633 35H133.865L134.473 30.936H138.793L139.401 35H142.953L139.369 12.6ZM136.617 16.568L138.313 27.896H134.921L136.617 16.568Z" fill="#222126"/>
<path d="M152.113 35H155.729V12.6H152.593V26.008L148.977 12.6H144.561V35H147.729V18.776L152.113 35Z" fill="#222126"/>
<path d="M165.129 26.648V29.848C165.129 31.448 164.425 32.024 163.305 32.024C162.185 32.024 161.481 31.448 161.481 29.848V17.752C161.481 16.152 162.185 15.544 163.305 15.544C164.425 15.544 165.129 16.152 165.129 17.752V20.152H168.457V17.976C168.457 14.392 166.665 12.344 163.209 12.344C159.753 12.344 157.961 14.392 157.961 17.976V29.624C157.961 33.208 159.753 35.256 163.209 35.256C166.665 35.256 168.457 33.208 168.457 29.624V26.648H165.129Z" fill="#222126"/>
<path d="M174.113 15.8H180.193V12.6H170.593V35H180.193V31.8H174.113V25.24H178.945V22.04H174.113V15.8Z" fill="#222126"/>
<path fill-rule="evenodd" clip-rule="evenodd" d="M192.655 12.6H187.343V35H192.879C196.399 35 198.223 33.144 198.223 29.688V27.864C198.223 25.496 197.487 23.8 195.599 23.064C197.167 22.328 197.871 20.856 197.871 18.552V17.752C197.871 14.296 196.303 12.6 192.655 12.6ZM192.431 24.92C194.031 24.92 194.703 25.56 194.703 27.64V29.592C194.703 31.256 194.062 31.8 192.879 31.8H190.863V24.92H192.431ZM192.559 15.8C193.807 15.8 194.351 16.504 194.351 18.104V19.352C194.351 21.144 193.551 21.72 192.239 21.72H190.863V15.8H192.559Z" fill="#222126"/>
<path fill-rule="evenodd" clip-rule="evenodd" d="M200.055 29.624C200.055 33.208 201.943 35.256 205.399 35.256C208.855 35.256 210.743 33.208 210.743 29.624V17.976C210.743 14.392 208.855 12.344 205.399 12.344C201.943 12.344 200.055 14.392 200.055 17.976V29.624ZM203.575 17.752C203.575 16.152 204.279 15.544 205.399 15.544C206.519 15.544 207.223 16.152 207.223 17.752V29.848C207.223 31.448 206.519 32.056 205.399 32.056C204.279 32.056 203.575 31.448 203.575 29.848V17.752Z" fill="#222126"/>
<path d="M212.006 15.8H215.686V35H219.206V15.8H222.886V12.6H212.006V15.8Z" fill="#222126"/>
</svg>

<svg width="223" height="48" viewBox="0 0 223 48" fill="none" xmlns="http://www.w3.org/2000/svg"><path d="M18.097 22.176a1.715 1.715 0 103.43 0V20.68a1.715 1.715 0 00-3.43 0v1.495zm16.34 1.715a1.715 1.715 0 01-1.715-1.715V20.68a1.715 1.715 0 113.43 0v1.495c0 .947-.767 1.715-1.715 1.715z" fill="#222126"/><path fill-rule="evenodd" clip-rule="evenodd" d="M54.249 43.286A4.714 4.714 0 0149.535 48H4.714A4.714 4.714 0 010 43.286v-26.37C0 7.575 7.574 0 16.917 0h20.415C46.675 0 54.25 7.574 54.25 16.917v26.37zm-19.495-5.992c0 .948-.768 1.716-1.715 1.716H21.21a1.715 1.715 0 010-3.43h11.828c.948 0 1.716.767 1.716 1.715zm-24.05-12.517a3.109 3.109 0 003.108 3.11h26.625a3.109 3.109 0 003.108-3.11v-6.615a3.109 3.109 0 00-3.108-3.11H13.812a3.109 3.109 0 00-3.108 3.11v6.615z" fill="#222126"/><path d="M76.8 15.8h5.792v-3.2H73.28V35h3.52v-9.248h4.544v-3.2H76.8V15.8z" fill="#222126"/><path fill-rule="evenodd" clip-rule="evenodd" d="M95.224 35c-.352-.832-.384-1.632-.384-2.72v-3.456c0-2.336-.576-4.032-2.336-4.768 1.568-.736 2.304-2.24 2.304-4.544v-1.76c0-3.456-1.568-5.152-5.216-5.152H84.28V35h3.52v-9.12h1.216c1.6 0 2.304.768 2.304 2.848v3.52c0 1.793.124 2.164.31 2.723l.01.029h3.584zm-5.728-19.2c1.248 0 1.792.704 1.792 2.304v2.208c0 1.792-.8 2.368-2.112 2.368H87.8V15.8h1.696z" fill="#222126"/><path d="M100.675 15.8h6.08v-3.2h-9.6V35h9.6v-3.2h-6.08v-6.56h4.832v-3.2h-4.832V15.8zm11.781 0h6.08v-3.2h-9.6V35h9.6v-3.2h-6.08v-6.56h4.832v-3.2h-4.832V15.8zm8.262 19.2h9.312v-3.2h-5.792V12.6h-3.52V35z" fill="#222126"/><path fill-rule="evenodd" clip-rule="evenodd" d="M139.369 12.6h-5.152L130.633 35h3.232l.608-4.064h4.32l.608 4.064h3.552l-3.584-22.4zm-2.752 3.968l1.696 11.328h-3.392l1.696-11.328z" fill="#222126"/><path d="M152.113 35h3.616V12.6h-3.136v13.408L148.977 12.6h-4.416V35h3.168V18.776L152.113 35zm13.016-8.352v3.2c0 1.6-.704 2.176-1.824 2.176s-1.824-.576-1.824-2.176V17.752c0-1.6.704-2.208 1.824-2.208s1.824.608 1.824 2.208v2.4h3.328v-2.176c0-3.584-1.792-5.632-5.248-5.632-3.456 0-5.248 2.048-5.248 5.632v11.648c0 3.584 1.792 5.632 5.248 5.632 3.456 0 5.248-2.048 5.248-5.632v-2.976h-3.328zm8.984-10.848h6.08v-3.2h-9.6V35h9.6v-3.2h-6.08v-6.56h4.832v-3.2h-4.832V15.8z" fill="#222126"/><path fill-rule="evenodd" clip-rule="evenodd" d="M192.655 12.6h-5.312V35h5.536c3.52 0 5.344-1.856 5.344-5.312v-1.824c0-2.368-.736-4.064-2.624-4.8 1.568-.736 2.272-2.208 2.272-4.512v-.8c0-3.456-1.568-5.152-5.216-5.152zm-.224 12.32c1.6 0 2.272.64 2.272 2.72v1.952c0 1.664-.641 2.208-1.824 2.208h-2.016v-6.88h1.568zm.128-9.12c1.248 0 1.792.704 1.792 2.304v1.248c0 1.792-.8 2.368-2.112 2.368h-1.376V15.8h1.696zm7.496 13.824c0 3.584 1.888 5.632 5.344 5.632 3.456 0 5.344-2.048 5.344-5.632V17.976c0-3.584-1.888-5.632-5.344-5.632-3.456 0-5.344 2.048-5.344 5.632v11.648zm3.52-11.872c0-1.6.704-2.208 1.824-2.208s1.824.608 1.824 2.208v12.096c0 1.6-.704 2.208-1.824 2.208s-1.824-.608-1.824-2.208V17.752z" fill="#222126"/><path d="M212.006 15.8h3.68V35h3.52V15.8h3.68v-3.2h-10.88v3.2z" fill="#222126"/></svg>
